X:2368
T:Jemmy as Nancy
C:Traditional
O:Isle of Man 
Z:Collected by Mona Douglas
B:Kiaull Vannin #368
N:See also KV 389
M:6/8 
L:1/8
K:A 
e|e2d c2B|B2A B2c|d2e f2f|e2c A2c|d3 c2c|A3 B2c|d2e f2f|(e3-e2) e|
e2d c2B|B2A B2c|d2e f2f|e2c A2c|d3 e2e|f3 e2d|c2c d2B|A3-A2||

